raycast/extensions/amzn-raycast-extension/assets/siren.svg

<svg width="16" height="16" viewBox="0 0 16 16" fill="none" xmlns="http://www.w3.org/2000/svg">
<path fill-rule="evenodd" clip-rule="evenodd" d="M4.62517 2.0857C4.14131 2.22548 3.52598 2.86239 3.38255 3.37204C3.31813 3.60091 3.11671 5.00832 2.93488 6.49963C2.75304 7.99093 2.57519 9.3979 2.53945 9.62611L2.47459 10.0411H3.36229C4.11287 10.0411 4.2584 10.0112 4.30489 9.84745C4.3351 9.74088 4.49502 8.48342 4.66025 7.05299C4.83368 5.55183 5.02514 4.34695 5.11334 4.20318C5.29905 3.90028 5.60462 3.88279 5.85617 4.16069C6.03203 4.35503 6.02318 4.5248 5.70732 7.02311C5.52261 8.48375 5.37154 9.76046 5.37154 9.86007C5.37154 10.0244 5.74893 10.0411 9.47138 10.0411H13.5713L13.5101 9.68144C13.4765 9.48356 13.3007 8.1016 13.1195 6.6103C12.9382 5.11899 12.735 3.70416 12.6678 3.46622C12.4966 2.8593 12.1561 2.44073 11.6238 2.18309C11.1992 1.97757 10.9513 1.96274 8.0757 1.97204C6.37534 1.97757 4.82261 2.0287 4.62517 2.0857ZM1.31055 11.3042C1.01472 11.5588 1 11.6168 1 12.5312C1 13.4457 1.01472 13.5037 1.31055 13.7583L1.62109 14.0253H8.03885H14.4567L14.7283 13.7536C14.9747 13.5074 15 13.3932 15 12.5312C15 11.6693 14.9747 11.5551 14.7283 11.3089L14.4567 11.0372H8.03885H1.62109L1.31055 11.3042Z" fill="white"/>
</svg>

<svg width="16" height="16" fill="none" xmlns="http://www.w3.org/2000/svg"><path fill-rule="evenodd" clip-rule="evenodd" d="M4.625 2.086c-.484.14-1.099.776-1.242 1.286-.065.229-.266 1.636-.448 3.128a222.03 222.03 0 01-.396 3.126l-.064.415h.887c.75 0 .896-.03.943-.194.03-.106.19-1.364.355-2.794.174-1.501.365-2.706.453-2.85.186-.303.492-.32.743-.042.176.194.167.364-.149 2.862-.184 1.46-.335 2.737-.335 2.837 0 .164.377.181 4.1.181h4.1l-.062-.36c-.034-.197-.21-1.58-.39-3.07-.182-1.492-.385-2.907-.452-3.145-.171-.607-.512-1.025-1.044-1.283-.425-.205-.673-.22-3.548-.211-1.7.006-3.253.057-3.45.114zm-3.314 9.218c-.296.255-.311.313-.311 1.227 0 .915.015.973.31 1.227l.311.267h12.836l.271-.271c.247-.247.272-.36.272-1.223 0-.862-.025-.976-.272-1.222l-.271-.272H1.62l-.31.267z" fill="#fff"/></svg>
